X:29
T:In Infancy,2voices. JGi.029
M:C|
L:1/8
Q:1/4=100
S:Joshua Gibbons MS,1823,Tealby,Lincs.
R:Air
C:'Louth'
O:Tealby,Lincolnshire
Z:VMP/R.Greig, 2009
K:C
[V:1]|:G2|c3dc2d2|e3fe2f2|(ag)(fe) (gf)(ed)|{d}e4z2e2|d3c (Bd) (dg)|g3dd2e2|
[V:2]|:z2|z4z2G2|c3dc2d2|(fe)(dc) (ed)(cB)|{B}c4z2c2|d3fg3B|d3cB2c2|
[V:1](ed)(cB) dcBA|(3gba (3g^fe d2c2|B2g2(ba) (g^f)|{f}g6:|
[V:2](cB)(AG) (BA)(GF)|G2(3BAG D2^F2|G2B2(dc)(BA)|G6:|
[V:1]|:g2{a}|g2(fe)f2zf|f2(ed)e2ze|d2c2f2e2|(g2d2)z2G2|
[V:2]|:e2|e2dcd2zd{e}|d2(cB)c2zc|B2e2d2c2|{c}B4z2C2|
[V:1]c3dc2d2|e3fe2f2|(ag)(fe) (gf)(ed)|c'2(3c'ba (3gfg (3agf |ede "triplet in MS"fed c2B2|c6:|
[V:2]E3FE2G2|c3dc2d2|(fe)(dc) (ed)(cB)|c2(3agf (3ede (3fed |(cBc) (dcB)c2G2|E6:|

